X:271
T:score70
L:1/8
Q:1/4=96
M:9/8
I:linebreak $
K:G
 z (GA Bdc ced | dgf gdB GAB |$ cde dcB ABG | FGA DFA cBA | B)(GA Bdc ced |$ dgf gdB GAB | %6
 Edc BAG DGF | G6) |] %8
